public/assets/images/career/04.svg

<svg width="60" height="60" viewBox="0 0 60 60" fill="none" xmlns="http://www.w3.org/2000/svg">
<g clip-path="url(#clip0_1375_17591)">
<path fill-rule="evenodd" clip-rule="evenodd" d="M22.3948 29.9769C17.18 35.016 20.9417 44.2972 28.2893 44.1918C32.8831 44.1918 36.6214 40.4535 36.6214 35.8597C36.7151 28.5238 27.4339 24.7621 22.3948 29.9769ZM28.2776 42.5746C19.4182 42.305 19.4182 29.4379 28.2776 29.1683C30.1292 29.1683 31.805 29.9183 33.0237 31.1371C37.219 35.18 34.1956 42.6566 28.2776 42.5746ZM58.4768 18.1879C53.8831 13.5589 47.1096 19.2425 49.9807 24.3168L41.93 30.5277C40.3362 28.6761 38.3792 27.1879 36.2112 26.1214L41.2854 14.6136C44.051 15.4808 47.2737 14.8597 49.3128 12.2699C53.5667 7.26598 49.2893 -0.71449 42.7151 0.094104C38.6253 0.539416 35.637 4.26598 36.094 8.35582C36.3401 10.9339 37.8401 12.8675 39.8089 13.9691L34.7229 25.4769C32.3206 24.5394 29.719 24.1058 27.1175 24.2464L26.2854 16.6996C32.6839 14.8246 30.6448 5.30895 23.8479 6.44567C17.5198 7.95739 18.844 16.6996 24.68 16.8871L25.512 24.3988C23.7776 24.6566 22.0667 25.1722 20.4378 25.9691L12.8323 12.0121C17.7893 8.56676 15.1057 -0.386365 7.91042 0.820666C-0.105203 2.76598 2.20339 14.3793 10.3596 13.0902C10.7346 13.0082 11.0745 12.891 11.4026 12.7621L19.0198 26.7543C17.8362 27.4808 16.6995 28.3714 15.6448 29.4379C15.4807 29.6019 15.3401 29.766 15.1878 29.93L9.87917 25.4418C11.9065 22.0316 9.50417 16.6175 4.28933 17.4964C-2.43723 19.1019 -0.527077 28.9105 6.31667 27.8675C7.34792 27.6332 8.17995 27.2113 8.82448 26.6722L14.1331 31.1605C8.61355 38.2152 9.62136 47.7074 14.8596 53.8246C14.8948 53.8949 14.9417 53.9652 15.0003 54.0238C15.0471 54.0824 15.1057 54.1293 15.1526 54.1761C15.5159 54.5746 15.9026 54.9613 16.301 55.3363C16.3128 55.348 16.3128 55.348 16.3245 55.3597C18.2815 57.1644 20.6721 58.5472 23.426 59.2972C23.5432 59.3324 23.6721 59.3675 23.7893 59.4027C24.0354 59.4613 24.2815 59.5199 24.5393 59.5668C24.7737 59.6136 25.0081 59.6722 25.2425 59.7074C25.43 59.7425 25.6292 59.766 25.8284 59.7894C26.0979 59.8246 26.3675 59.8597 26.637 59.8832C26.9065 59.9066 27.1643 59.9183 27.4339 59.93C27.6096 59.9418 27.7737 59.9535 27.9495 59.9535C28.0667 59.9535 28.1839 59.9652 28.301 59.9652C28.5354 59.9652 28.7698 59.9418 29.0042 59.93C29.1331 59.9183 29.262 59.9183 29.3909 59.9066C31.676 59.766 33.8557 59.2035 35.8245 58.2894C36.012 58.2074 36.1878 58.1136 36.3753 58.0199C36.5862 57.9144 36.8089 57.8089 37.0198 57.68C38.4612 56.8949 39.7737 55.9105 40.9221 54.7386C40.9573 54.7035 40.9925 54.6566 41.0393 54.6214C41.2385 54.4105 41.4378 54.2113 41.6253 54.0004C41.6487 53.9769 41.6604 53.9418 41.6839 53.9183C44.4729 50.766 46.1839 46.6293 46.1839 42.0824C46.1839 38.0863 44.9651 34.6058 42.9612 31.7933L50.9885 25.5941C55.887 30.0941 62.9651 23.391 58.4768 18.1879ZM42.9378 1.69957C50.6721 1.18395 51.8089 12.3285 44.1214 13.3714C42.9846 13.4418 42.0003 13.266 41.1682 12.9144H41.1565C36.2581 10.8285 36.3987 2.5902 42.9378 1.69957ZM24.2112 8.0277C28.969 7.23082 30.3401 14.1566 25.6175 15.2113C20.8479 15.9847 19.5003 9.11754 24.2112 8.0277ZM10.055 11.5082C4.00808 12.4925 2.29714 3.78551 8.2737 2.41442C14.2971 1.39489 16.0198 10.1605 10.055 11.5082ZM6.04714 26.2738C1.28933 27.0707 -0.0700462 20.1449 4.64089 19.0902C9.3987 18.2816 10.7581 25.2191 6.04714 26.2738ZM39.8557 53.4847C39.762 53.5785 39.6682 53.6722 39.5745 53.766C39.2932 54.0472 39.012 54.3285 38.7073 54.5863C38.4964 54.7621 38.2737 54.9261 38.051 55.0902C37.8518 55.2425 37.6643 55.3949 37.4534 55.5355C37.1604 55.7347 36.8557 55.9105 36.551 56.0863C36.3987 56.18 36.2464 56.2738 36.094 56.3558C35.7659 56.5316 35.4378 56.6839 35.0979 56.8246C34.9339 56.8949 34.7815 56.9769 34.6292 57.0472C34.3245 57.1644 34.0198 57.2699 33.7034 57.3754C33.4925 57.4457 33.2932 57.5277 33.0823 57.5863C32.8596 57.6566 32.637 57.6918 32.4143 57.7504C32.1096 57.8207 31.805 57.9144 31.4885 57.973C31.4417 57.9847 31.3948 57.9847 31.3596 57.9964C29.3089 58.3597 27.1878 58.3597 25.137 57.9847C25.1253 57.9847 25.1253 57.9847 25.1135 57.9847C24.7737 57.9261 24.4456 57.8324 24.1057 57.7504C23.9065 57.7035 23.7073 57.6683 23.5198 57.6097C23.2854 57.5394 23.0628 57.4574 22.8284 57.3754C22.5471 57.2816 22.2542 57.1879 21.9729 57.0707C21.7971 57.0004 21.6214 56.9066 21.4456 56.8246C21.1292 56.6839 20.8128 56.5433 20.4964 56.3793C20.3206 56.2855 20.1682 56.18 20.0042 56.0863C19.7112 55.9105 19.4182 55.7464 19.1253 55.5472C18.9143 55.4066 18.7151 55.2425 18.5159 55.0902C18.305 54.9261 18.0823 54.7738 17.8714 54.598C17.5667 54.3402 17.2854 54.0589 17.0042 53.7777C16.9104 53.6839 16.805 53.5902 16.7112 53.4964C16.6526 53.4379 16.594 53.3675 16.5354 53.3089C21.176 43.6879 35.3909 43.6879 40.0315 53.3089C39.9729 53.3675 39.9143 53.4261 39.8557 53.4847ZM41.1682 51.9964C39.9964 49.8871 38.3089 48.0824 36.2932 46.7699C31.7464 43.6527 24.8206 43.6527 20.2854 46.7699C18.2581 48.0824 16.5823 49.8754 15.4104 51.9964C7.40652 41.7543 14.5198 25.8285 28.2893 25.8285C30.7034 25.8285 32.8948 26.3324 34.8518 27.1879C34.8635 27.1879 34.8635 27.1996 34.8753 27.1996C44.0862 31.2543 47.7659 43.5472 41.1682 51.9964ZM51.9378 24.305C48.6682 20.6488 53.9534 15.7855 57.3284 19.3363C60.3987 22.9925 55.3362 27.6566 51.9378 24.305Z" fill="#0F62FE"/>
</g>
<defs>
<clipPath id="clip0_1375_17591">
<rect width="60" height="60" fill="white"/>
</clipPath>
</defs>
</svg>

<svg xmlns="http://www.w3.org/2000/svg" width="60" height="60" fill="none" viewBox="0 0 60 60"><g clip-path="url(#a)"><path fill="#0f62fe" fill-rule="evenodd" d="M22.395 29.977c-5.215 5.039-1.453 14.32 5.894 14.215 4.594 0 8.332-3.739 8.332-8.332.094-7.336-9.187-11.098-14.226-5.883m5.883 12.598c-8.86-.27-8.86-13.137 0-13.407 1.851 0 3.527.75 4.746 1.97 4.195 4.042 1.172 11.519-4.746 11.437m30.199-24.387c-4.594-4.63-11.367 1.055-8.496 6.129l-8.051 6.21a18.05 18.05 0 0 0-5.719-4.406l5.074-11.507c2.766.867 5.989.246 8.028-2.344C53.567 7.266 49.289-.714 42.715.094c-4.09.445-7.078 4.172-6.621 8.262.246 2.578 1.746 4.512 3.715 5.613l-5.086 11.508a18.3 18.3 0 0 0-7.605-1.23l-.833-7.547c6.399-1.875 4.36-11.391-2.437-10.254-6.328 1.511-5.004 10.254.832 10.441l.832 7.512a17.3 17.3 0 0 0-5.074 1.57l-7.606-13.957C17.79 8.567 15.106-.386 7.91.821c-8.015 1.945-5.707 13.558 2.45 12.27a7 7 0 0 0 1.043-.329l7.617 13.992a18 18 0 0 0-3.375 2.684c-.164.164-.305.328-.457.492l-5.309-4.488c2.027-3.41-.375-8.824-5.59-7.946-6.726 1.606-4.816 11.415 2.028 10.372 1.03-.235 1.863-.657 2.507-1.196l5.31 4.488c-5.52 7.055-4.513 16.547.726 22.665a.8.8 0 0 0 .14.199c.047.058.106.105.153.152.363.399.75.785 1.148 1.16l.024.024a17 17 0 0 0 7.101 3.937c.117.035.246.07.363.106.246.058.492.117.75.164.235.047.47.105.703.14.188.035.387.059.586.082q.405.056.809.094c.27.024.527.035.797.047.176.012.34.023.515.023.118 0 .235.012.352.012.234 0 .469-.023.703-.035.13-.012.258-.012.387-.023a17.9 17.9 0 0 0 6.434-1.618c.187-.082.363-.175.55-.27.211-.105.434-.21.645-.339a16.5 16.5 0 0 0 3.902-2.941c.035-.035.07-.082.117-.118.2-.21.399-.41.586-.62.024-.024.035-.06.059-.083 2.789-3.152 4.5-7.289 4.5-11.836 0-3.996-1.219-7.476-3.223-10.289l8.028-6.199c4.898 4.5 11.976-2.203 7.488-7.406M42.937 1.7c7.735-.516 8.872 10.629 1.184 11.671-1.136.07-2.12-.105-2.953-.457h-.011C36.258 10.83 36.399 2.59 42.937 1.7M24.212 8.028c4.758-.797 6.13 6.129 1.407 7.183-4.77.774-6.118-6.093-1.407-7.183m-14.156 3.48c-6.047.985-7.758-7.722-1.781-9.094 6.023-1.02 7.746 7.747 1.781 9.094M6.047 26.274c-4.758.797-6.117-6.13-1.406-7.184 4.758-.808 6.117 6.13 1.406 7.184m33.809 27.21-.282.282c-.28.281-.562.563-.867.82-.21.176-.433.34-.656.504-.2.152-.387.305-.598.445-.293.2-.597.376-.902.551a9 9 0 0 1-.457.27 11 11 0 0 1-.996.469c-.164.07-.316.152-.469.222-.304.117-.61.223-.926.328-.21.07-.41.153-.62.211-.223.07-.446.106-.669.164-.304.07-.609.164-.926.223-.046.012-.093.012-.128.023a17.6 17.6 0 0 1-6.223-.011h-.024c-.34-.059-.667-.153-1.007-.235-.2-.047-.399-.082-.586-.14-.235-.07-.457-.153-.692-.235-.28-.093-.574-.187-.855-.304-.176-.07-.352-.164-.527-.246a18 18 0 0 1-.95-.446c-.175-.093-.328-.199-.492-.293-.293-.175-.586-.34-.879-.539-.21-.14-.41-.304-.61-.457-.21-.164-.433-.316-.644-.492-.304-.258-.586-.54-.867-.82-.094-.094-.199-.188-.293-.282-.058-.058-.117-.129-.176-.187 4.641-9.621 18.856-9.621 23.497 0zm1.312-1.488a14.9 14.9 0 0 0-4.875-5.226c-4.547-3.117-11.472-3.117-16.008 0a14.7 14.7 0 0 0-4.875 5.226c-8.003-10.242-.89-26.168 12.88-26.168 2.413 0 4.605.504 6.562 1.36.012 0 .012.012.023.012 9.211 4.054 12.89 16.347 6.293 24.796m10.77-27.691c-3.27-3.656 2.015-8.52 5.39-4.969 3.07 3.657-1.992 8.32-5.39 4.969" clip-rule="evenodd"/></g><defs><clipPath id="a"><path fill="#fff" d="M0 0h60v60H0z"/></clipPath></defs></svg>
